!! 00000] TT[WS
!!!OTL: Paoda Huaxiancheng
!!!ARE: Asia, China, Shanxi Zuoquan
!! Ethnic Group: Han
!! WI, 268 (1)
!!!SCT: J0317
!!!YEM: Copyright 1995, estate of Helmut Schaffrath.
**kern
*ICvox
*Ivox
*M2/4
*k[f#]
*G:
{4ee
8b
8ee
=1
8dd
8dd
4b
=2
8ee
8gg
8dd
8ff#
=3
8ee
8cc
8b
8a
=4
4g
8d
8e
=5
4g
4r}
=6
{4gg
8ff#
8ee
=7
8dd
8b
4gg
=8
8ee
8cc
8b
8a
=9
4g
4dd
=10
8a
8dd
8a
8e
=11
4g
8f#
8e
=12
4.d
8e
=13
4d
4r}
=14
{4dd
4dd
=15
8a
8b
8f#
8e
=16
4.d
8e
=17
2d}
==
!!!AGN: Xiaodiao. XÅshi
!!!ONB: ESAC (Essen Associative Code) Database: CHINA
!!!AMT: simple duple
!!!AIN: vox
!!!EED: Helmut Schaffrath
!!!EEV: 1.0
*-
